X: 0
T:30 Year Jig, The
M:6/8
L:1/8
C:Roger Tallroth
R:jig
D:John McCusker: Yella Hoose
Z:Devin McCabe
K:G fgp=1
Q: "BPM=200"
D|:EDE FEF|GBG D2D|EcB AGE|{F}G2A- AFD|
!EDE FEF|GBG D2D|EcB AGE|1F2G- GzD:|2F2G- Gz2|
!:~d3 edc|~d3 A(3F^GA|Bdc BAG|FED EFA|
!~d3 edc|~d3 A(3F^GA|Bdc BAF-|Fdc BAF|
!GFE ~F3|GBA FEF|GFG Bed|1c2d- dz2:|2c2d- d||
